bedrock/firefox/templates/firefox/whatsnew/includes/fx83/person3.svg

<svg width="191" height="230" viewBox="0 0 191 230" fill="none" xmlns="http://www.w3.org/2000/svg">
<g clip-path="url(#clip0)">
<path d="M151.376 195.644C151.376 195.644 154.236 202.368 160.912 208.359C167.587 214.349 173.991 219.85 181.074 217.405C188.157 214.959 180.436 202.474 178.214 197.966C175.661 192.793 172.763 183.908 168.813 180.484C164.862 177.061 162.874 177 162.874 177L150.15 182.562L147 190.928L151.376 195.644Z" fill="#82ECB7"/>
<path d="M59.9746 74.8951C63.9479 66.0102 74.0028 58.5298 85.9255 54.322C97.8483 50.1141 110.006 52.9203 110.006 52.9203L131.177 55.389C131.177 55.389 147.413 56.4273 159.104 73.2588C170.795 90.0903 175.939 108.796 173.132 122.824C170.326 136.852 161.441 149.475 145.545 152.751C129.646 156.023 119.774 155.677 113.69 155.677L54.1162 123.216L30.8656 98.5175L34.2779 91.0113C34.2779 91.0113 41.78 91.0113 45.8721 91.0113C49.9641 91.0113 58.1483 88.397 58.1483 88.397L59.9717 74.8951H59.9746Z" fill="#FFE55E"/>
<path d="M129.984 52.4483C132.555 50.7548 134.478 47.1791 134.478 47.1791L134.063 53.5181C137.804 52.8716 142.273 47.4909 142.273 47.4909L141.337 53.4151C147.882 52.5827 150.897 46.4783 150.897 46.4783C150.794 49.931 149.338 57.1567 149.338 57.1567C153.495 56.6361 156.195 47.6997 156.195 47.6997L157.754 55.3918C157.754 55.3918 160.248 48.844 160.975 43.5691C161.701 38.2971 157.857 19.9552 153.286 14.2398C148.715 8.52445 138.737 1.56187 130.53 0.626465C122.32 -0.308936 112.657 2.39429 112.657 2.39429C102.888 3.95329 95.8229 16.6313 94.9933 23.6968C94.1638 30.7624 96.0317 39.8017 99.1497 44.064C102.268 48.3262 109.436 47.3879 109.436 47.3879L122.166 49.0442L127.93 49.9109L129.984 52.4483Z" fill="black"/>
<path d="M46.7414 79.389C47.0246 79.1544 47.4423 78.5251 47.6625 76.8488C48.0144 74.1656 44.2327 72.9499 42.0501 74.8979C39.8675 76.8459 38.9321 78.7997 38.9321 78.7997L42.9541 81.7718L46.7414 79.389Z" fill="#FBB54B"/>
<path d="M151.449 64.7086L151.446 64.7114C146.752 67.2258 136.037 68.5846 121.385 66.2475C106.733 63.9076 99.2499 52.0191 99.2499 52.0191V52.0163C105.483 51.8761 110.006 52.9202 110.006 52.9202C110.329 51.7188 110.206 46.3467 110.097 43.1429C104.613 39.4041 102.102 33.3884 101.824 29.7726C101.355 23.6939 102.934 10.5526 111.876 6.86245C119.122 3.87031 122.478 4.52252 122.478 4.52252C122.581 4.51966 122.686 4.5168 122.789 4.5168C125.195 4.5168 127.526 5.34063 129.403 6.85387L129.412 6.86245C129.412 6.86245 142.038 10.3695 142.973 22.5268C143.829 33.6916 142.519 42.0959 129.443 45.3855C129.52 47.6711 129.783 52.5684 130.639 55.3488L131.177 55.3889C131.177 55.3889 141.392 56.0411 151.449 64.7086Z" fill="#FBB54B"/>
<path d="M76.497 100.537C76.497 100.537 70.8846 102.408 64.0279 102.874C57.1683 103.343 52.6486 101.003 52.6486 101.003C52.1623 99.0666 51.8476 96.721 51.656 94.2809C50.0913 94.9503 48.1747 95.7026 46.8045 96.0173C44.7106 96.495 42.0359 96.2404 40.9003 96.0945L42.6109 92.3987C43.2517 92.496 44.4703 92.5675 46.4126 92.2757C47.737 92.0754 49.7795 91.1687 51.4329 90.3162C51.3728 88.5369 51.3585 86.8006 51.3699 85.2301C49.1873 84.2232 46.0379 83.0847 42.9856 82.9245C37.0614 82.6127 35.6598 83.5481 35.6598 83.5481L29.2693 82.1436C29.2693 82.1436 32.3873 78.7996 41.5811 78.9598C45.7375 79.0342 49.2016 80.0239 51.4586 80.8907C51.5101 79.4118 51.5644 78.5221 51.5587 78.5593C51.5587 78.5593 56.2071 74.6747 65.8958 74.6118C79.7695 74.5202 78.8341 77.7813 78.8341 77.7813C79.6122 88.8459 76.497 100.537 76.497 100.537Z" fill="#FF3355"/>
<path d="M51.5588 78.5594C51.5588 78.5594 58.1696 79.9611 65.1522 79.8066C72.1319 79.6522 78.8342 77.7814 78.8342 77.7814" stroke="black" stroke-width="1.5" stroke-miterlimit="10" stroke-linecap="round" stroke-linejoin="round"/>
<path d="M38.3085 98.5202C33.2081 103.083 29.9843 103.343 27.9132 101.315C27.1008 100.523 27.1094 99.4642 27.6443 98.5202C27.9132 98.0453 28.6026 97.7993 27.5185 98.1683C25.6162 98.8177 24.1516 98.6604 23.1933 96.9526C21.7888 94.4582 25.0641 92.124 25.0641 92.124C22.8586 92.3614 21.3626 91.5748 20.5444 89.9385C17.8927 84.6379 23.3478 83.548 26.7776 82.8587C30.2074 82.1721 35.0389 81.5199 35.6625 83.548C36.0887 84.9268 36.369 85.9452 34.7299 87.4413C34.8272 87.3955 36.3175 86.709 37.2215 88.0677C37.6649 88.7314 37.7907 89.8041 37.3102 91.0341L37.6162 90.954C37.6162 90.954 39.8703 90.256 41.4294 90.954C42.9855 91.652 43.4089 93.9547 38.3085 98.5202Z" fill="#FBB54B"/>
<path d="M19.0171 113.967C19.0171 113.967 19.7608 104.693 19.2946 102.185C18.8283 99.676 18.5937 99.9106 21.6316 100.846C24.6695 101.781 52.2596 106.458 59.9745 106.925C67.6894 107.391 70.0265 107.791 72.3664 108.292C74.7035 108.795 75.3528 109.001 75.8735 112.769C76.294 115.815 77.1178 121.207 77.1178 121.207L19.0171 113.967Z" fill="#1CAFA1"/>
<path d="M14.9292 160.197C14.9292 160.197 8.22688 162.256 3.39541 163.504C-1.43607 164.751 -0.188869 164.439 1.5246 162.102C3.23808 159.765 11.1876 143.397 13.0984 134.578C15.0093 125.759 13.3702 113.627 13.2128 111.444C13.0555 109.262 12.5892 109.574 15.8617 110.043C19.1342 110.509 30.8253 111.444 35.6567 111.913C40.4882 112.38 58.7242 114.874 67.9209 115.81C77.1176 116.745 79.4547 117.369 79.4547 117.369L84.1717 121.21L84.9899 152.777L14.9292 160.197Z" fill="#82ECB7"/>
<path d="M150.843 184.391L165.4 177.3C165.852 176.364 174.766 166.544 173.129 155.677C171.493 144.81 165.4 140.399 165.4 140.399L80.8593 151.503C80.8593 151.503 65.584 144.489 46.8016 145.891C28.0192 147.293 15.7073 153.995 13.0556 165.529C10.4067 177.062 23.0304 186.883 36.904 192.338C50.7777 197.793 98.3144 211.509 124.188 208.86C150.062 206.212 157.5 205 157.5 205L155 202C152.151 196.119 149.547 190.796 150.843 184.391Z" fill="#50BBB5"/>
<path d="M125.064 155.677C124.663 159.07 124.191 159.453 120.45 160.077C116.708 160.7 88.6745 158.752 84.9901 158.518C80.0814 158.206 81.3286 155.4 80.8595 151.503C80.3932 147.607 78.9887 112.537 79.6123 108.295C79.6123 108.295 79.3005 105.835 82.2612 104.433C85.2218 103.031 88.4972 102.997 92.8595 102.937C97.2219 102.877 124.343 101.939 126.837 102.25C129.332 102.562 130.842 102.654 132.43 103.214C133.216 103.492 131.886 109.373 131.139 115.509C130.381 121.748 129.409 127.967 129.409 127.967L129.071 131.317L125.064 155.677Z" fill="black"/>
<path d="M137.816 135.007C136.446 133.319 135.204 131.557 134.947 130.461C134.323 127.812 135.101 125.161 134.947 121.11C134.824 117.935 132.184 117.918 131.045 118.058L128.785 131.282C124.572 131.228 115.621 131.151 113.124 131.32C109.694 131.554 104.559 131.225 104.551 134.048C104.539 137.945 110.006 137.945 110.006 137.945V137.95C108.484 138.128 107.094 138.379 105.952 138.723C99.2501 140.748 101.587 144.801 103.615 145.579C105.641 146.357 109.771 146.904 109.771 146.904C101.121 148.54 104.551 155.674 113.687 155.674C119.772 155.674 129.643 156.02 145.542 152.748C154.184 150.969 160.755 146.426 165.4 140.396L165.24 139.549C164.242 134.249 162.649 131.211 158.092 126.308L156.375 126.88C156.375 126.88 143.603 130.499 138.099 135.353L137.816 135.007Z" fill="#FBB54B"/>
<path d="M169 215C169 215 171.41 211.261 174.047 209.123C176.683 206.984 182 205 182 205" stroke="#1CAFA1" stroke-width="3.92263" stroke-miterlimit="10"/>
<path d="M129.412 46.1379C129.412 46.1379 129.54 54.5536 131.646 57.5944" stroke="black" stroke-width="1.5" stroke-miterlimit="10" stroke-linecap="round" stroke-linejoin="round"/>
<path d="M110.008 52.9173C110.475 51.1781 110.008 43.5662 110.008 43.5662" stroke="black" stroke-width="1.5" stroke-miterlimit="10" stroke-linecap="round" stroke-linejoin="round"/>
<path d="M129.412 6.85961C129.412 6.85961 142.035 10.3666 142.971 22.524C143.906 34.6814 142.27 43.5662 125.67 46.1379C109.07 48.7095 102.291 35.8513 101.821 29.7726C101.355 23.694 102.931 10.5526 111.873 6.85961C119.119 3.86747 122.475 4.52254 122.475 4.52254L123.364 4.5111C125.613 4.47963 127.781 5.32349 129.412 6.85961Z" stroke="black" stroke-width="1.5" stroke-miterlimit="10" stroke-linecap="round" stroke-linejoin="round"/>
<path d="M109.436 47.385C109.436 47.385 102.268 48.3204 99.1497 44.061C96.0317 39.8017 94.1609 30.7595 94.9933 23.6939C95.8258 16.6283 102.891 3.95036 112.657 2.39135C112.657 2.39135 122.32 -0.309009 130.53 0.623532C138.74 1.55893 148.715 8.52152 153.286 14.2369C157.857 19.9523 161.701 38.2913 160.975 43.5662C160.248 48.8382 157.754 55.3888 157.754 55.3888L156.195 47.6968C156.195 47.6968 153.495 56.6332 149.338 57.1538C149.338 57.1538 150.794 49.928 150.897 46.4754C150.897 46.4754 147.885 52.5826 141.337 53.4122L142.273 47.488C142.273 47.488 137.804 52.8687 134.063 53.5152L134.478 47.1762C134.478 47.1762 132.555 50.7547 129.984 52.4453" stroke="black" stroke-width="1.5" stroke-miterlimit="10" stroke-linecap="round" stroke-linejoin="round"/>
<path d="M125.985 38.4228C125.985 38.4228 126.139 36.9411 127.386 36.6293C128.633 36.3175 130.427 38.1883 129.412 39.979C128.399 41.7725 127.489 43.4088 124.32 42.4734C121.15 41.538 122.008 39.2266 123.021 38.5258C124.034 37.825 125.985 38.4228 125.985 38.4228Z" fill="#FF3355"/>
<path d="M117.955 21.5885C117.955 21.5885 119.357 28.1335 120.527 31.1742C121.697 34.215 123.098 34.6813 124.734 32.5759C126.371 30.4705 126.371 30.4705 126.371 30.4705" stroke="black" stroke-width="1.5" stroke-miterlimit="10" stroke-linecap="round" stroke-linejoin="round"/>
<path d="M124.32 21.5885C124.32 21.5885 124.268 23.6939 126.371 23.6939C129.412 23.6939 129.412 21.5885 129.412 21.5885" stroke="black" stroke-width="1.5" stroke-miterlimit="10" stroke-linecap="round" stroke-linejoin="round"/>
<path d="M109.227 24.6296C109.227 24.6296 109.616 26.6548 111.487 26.9666C113.358 27.2784 114.917 25.1731 115.149 24.2377" stroke="black" stroke-width="1.5" stroke-miterlimit="10" stroke-linecap="round" stroke-linejoin="round"/>
<path d="M115.152 40.3711C115.152 40.3711 120.996 41.072 125.75 39.593C130.504 38.1113 132.452 35.2278 132.452 35.2278" stroke="black" stroke-width="1.5" stroke-miterlimit="10" stroke-linecap="round" stroke-linejoin="round"/>
<path d="M90.6798 87.4413C90.6798 87.4413 87.7191 91.0256 89.5899 93.52C91.4607 96.0144 99.5389 92.7677 99.5389 92.7677" stroke="black" stroke-width="1.5" stroke-miterlimit="10" stroke-linecap="round" stroke-linejoin="round"/>
<path d="M153.263 123.962C153.263 123.962 163.658 124.714 164.86 140.616" stroke="black" stroke-width="1.5" stroke-miterlimit="10" stroke-linecap="round" stroke-linejoin="round"/>
<path d="M125.064 155.677C124.663 159.07 124.191 159.453 120.45 160.077C116.708 160.7 88.6745 158.752 84.9901 158.518C80.0814 158.206 81.3286 155.4 80.8595 151.503C80.3932 147.607 78.9887 112.537 79.6123 108.295C79.6123 108.295 79.3005 105.835 82.2612 104.433C85.2218 103.031 88.4972 102.997 92.8595 102.937C97.2219 102.877 124.343 101.939 126.837 102.25C129.332 102.562 130.842 102.654 132.43 103.214C133.216 103.492 131.886 109.373 131.139 115.509C130.381 121.748 129.409 127.967 129.409 127.967L129.071 131.317" stroke="black" stroke-width="0.784526" stroke-miterlimit="10" stroke-linecap="round" stroke-linejoin="round"/>
<path d="M62.6233 172.546C62.6233 172.546 82.5728 170.051 103.149 172.546C123.725 175.04 146.635 180.338 150.843 184.391" stroke="black" stroke-width="1.5" stroke-miterlimit="10" stroke-linecap="round" stroke-linejoin="round"/>
<path d="M26.7748 82.8586C30.2046 82.1721 35.0361 81.5199 35.6597 83.548" stroke="black" stroke-width="1.5" stroke-miterlimit="10" stroke-linecap="round" stroke-linejoin="round"/>
<path d="M30.9827 89.9356C36.5951 86.8176 36.2833 85.5704 35.6597 83.5452" stroke="black" stroke-width="1.5" stroke-miterlimit="10" stroke-linecap="round" stroke-linejoin="round"/>
<path d="M34.7216 87.4413C34.7216 87.4413 36.2835 86.6632 37.2189 88.0649C38.1543 89.4665 37.6851 92.7075 33.011 95.3736" stroke="black" stroke-width="1.5" stroke-miterlimit="10" stroke-linecap="round" stroke-linejoin="round"/>
<path d="M37.6135 90.9544C37.6135 90.9544 39.8676 90.2564 41.4266 90.9544C42.9856 91.6524 43.409 93.9551 38.3086 98.5205" stroke="black" stroke-width="1.5" stroke-miterlimit="10" stroke-linecap="round" stroke-linejoin="round"/>
<path d="M105.257 119.754C106.124 119.897 107.254 116.264 110.008 115.152C112.763 114.039 113.49 114.943 112.657 117.452C111.825 119.96 108.086 123.908 106.733 125.261C105.38 126.614 104.55 127.443 102.577 125.261C100.603 123.078 98.2113 119.337 97.5877 117.26C96.9641 115.183 98.4202 112.629 100.497 115.152C102.574 117.675 103.987 119.548 105.257 119.754Z" fill="#FF3355"/>
<path d="M102.508 37.3444C102.508 37.3444 100.22 13.9422 128.725 7.60039C128.725 7.60039 131.34 3.50122 125.696 2.71171C120.049 1.92505 106.144 4.44806 105.915 5.63519C105.457 8.01231 96.767 23.3878 96.767 23.3878L102.508 37.3444Z" fill="black"/>
<path class="drink-stroke" d="M47.3498 22.4693C44.546 26.1067 40.6206 34.5636 47.3498 39.2922C55.7613 45.203 47.3498 51.5684 47.3498 56.1152C47.3498 60.6619 53.0332 62.1396 55.0793 66.5727" stroke="black" stroke-width="1.5" stroke-linecap="round" stroke-linejoin="round"/>
<path class="drink-stroke" d="M60.1943 30.3125C58.1483 31.184 54.8974 33.9726 58.262 38.1556C62.4677 43.3844 62.1267 46.5671 60.1943 50.7728C58.262 54.9786 59.8533 59.7526 62.1267 61.4577" stroke="black" stroke-width="1.5" stroke-linecap="round" stroke-linejoin="round"/>
<path d="M100.274 148.268C108.924 146.632 125.907 145.033 125.907 145.033" stroke="black" stroke-width="1.5" stroke-miterlimit="10" stroke-linecap="round" stroke-linejoin="round"/>
<path d="M141.961 139.658C141.961 139.658 135.57 133.113 134.947 130.461C134.323 127.812 135.101 125.161 134.947 121.11C134.824 117.935 132.184 117.918 131.045 118.058" stroke="black" stroke-width="1.5" stroke-miterlimit="10" stroke-linecap="round" stroke-linejoin="round"/>
<path d="M130.53 131.319C130.53 131.319 116.553 131.085 113.126 131.319C109.697 131.554 104.562 131.225 104.553 134.048C104.542 137.944 110.008 137.944 110.008 137.944" stroke="black" stroke-width="1.5" stroke-miterlimit="10" stroke-linecap="round" stroke-linejoin="round"/>
<path d="M127.93 137.942C127.93 137.942 112.657 136.694 105.955 138.72C99.2527 140.745 101.59 144.798 103.618 145.576C105.643 146.354 110.346 146.615 110.346 146.615" stroke="black" stroke-width="1.5" stroke-miterlimit="10" stroke-linecap="round" stroke-linejoin="round"/>
</g>
<defs>
<clipPath id="clip0">
<rect width="190.004" height="230" fill="white"/>
</clipPath>
</defs>
</svg>

<svg width="191" height="230" fill="none" xmlns="http://www.w3.org/2000/svg"><g clip-path="url(#clip0)"><path d="M151.376 195.644s2.86 6.724 9.536 12.715c6.675 5.99 13.079 11.491 20.162 9.046 7.083-2.446-.638-14.931-2.86-19.439-2.553-5.173-5.451-14.058-9.401-17.482-3.951-3.423-5.939-3.484-5.939-3.484l-12.724 5.562-3.15 8.366 4.376 4.716z" fill="#82ECB7"/><path d="M59.975 74.895c3.973-8.885 14.028-16.365 25.95-20.573 11.923-4.208 24.081-1.402 24.081-1.402l21.171 2.469s16.236 1.038 27.927 17.87c11.691 16.831 16.835 35.537 14.028 49.565-2.806 14.028-11.691 26.651-27.587 29.927-15.899 3.272-25.771 2.926-31.855 2.926l-59.574-32.461-23.25-24.698 3.412-7.507h11.594c4.092 0 12.276-2.614 12.276-2.614l1.824-13.502h.003z" fill="#FFE55E"/><path d="M129.984 52.448c2.571-1.693 4.494-5.269 4.494-5.269l-.415 6.34c3.741-.647 8.21-6.028 8.21-6.028l-.936 5.924c6.545-.832 9.56-6.937 9.56-6.937-.103 3.453-1.559 10.679-1.559 10.679 4.157-.52 6.857-9.457 6.857-9.457l1.559 7.692s2.494-6.548 3.221-11.823c.726-5.272-3.118-23.614-7.689-29.33C148.715 8.525 138.737 1.563 130.53.627c-8.21-.935-17.873 1.768-17.873 1.768-9.769 1.56-16.834 14.237-17.664 21.303-.83 7.065 1.039 16.105 4.157 20.367 3.118 4.262 10.286 3.324 10.286 3.324l12.73 1.656 5.764.867 2.054 2.537z" fill="#000"/><path d="M46.741 79.389c.284-.235.701-.864.922-2.54.351-2.683-3.43-3.9-5.613-1.951-2.182 1.948-3.118 3.902-3.118 3.902l4.022 2.972 3.787-2.383zM151.449 64.709l-.003.002c-4.694 2.515-15.409 3.874-30.061 1.537-14.652-2.34-22.135-14.229-22.135-14.229v-.003c6.233-.14 10.756.904 10.756.904.323-1.201.2-6.573.091-9.777-5.484-3.739-7.995-9.755-8.273-13.37-.469-6.08 1.11-19.22 10.052-22.91 7.246-2.993 10.602-2.34 10.602-2.34a10.533 10.533 0 016.925 2.331l.009.008s12.626 3.508 13.561 15.665c.856 11.165-.454 19.569-13.53 22.858.077 2.286.34 7.183 1.196 9.964l.538.04s10.215.652 20.272 9.32z" fill="#FBB54B"/><path d="M76.497 100.537s-5.612 1.871-12.47 2.337c-6.859.469-11.378-1.871-11.378-1.871-.487-1.936-.801-4.282-.993-6.722-1.565.67-3.481 1.422-4.852 1.736-2.093.478-4.768.223-5.904.078l1.71-3.696c.642.097 1.86.168 3.803-.123 1.324-.2 3.367-1.107 5.02-1.96-.06-1.78-.075-3.515-.063-5.086-2.183-1.007-5.332-2.145-8.384-2.306-5.925-.311-7.326.624-7.326.624l-6.39-1.404S32.386 78.8 41.58 78.96a29.304 29.304 0 019.878 1.93c.051-1.478.105-2.368.1-2.33 0 0 4.648-3.885 14.337-3.948 13.873-.092 12.938 3.17 12.938 3.17.778 11.064-2.337 22.755-2.337 22.755z" fill="#F35"/><path d="M51.559 78.56s6.61 1.401 13.593 1.247c6.98-.155 13.682-2.026 13.682-2.026" stroke="#000" stroke-width="1.5" stroke-miterlimit="10" stroke-linecap="round" stroke-linejoin="round"/><path d="M38.309 98.52c-5.1 4.563-8.325 4.823-10.396 2.795-.812-.792-.804-1.85-.269-2.795.27-.475.959-.72-.125-.352-1.903.65-3.367.492-4.326-1.215-1.404-2.495 1.871-4.829 1.871-4.829-2.205.237-3.701-.55-4.52-2.185-2.651-5.301 2.804-6.391 6.234-7.08 3.43-.687 8.26-1.34 8.885.689.426 1.379.706 2.397-.933 3.893.097-.046 1.588-.732 2.492.627.443.663.569 1.736.088 2.966l.306-.08s2.254-.698 3.813 0c1.556.698 1.98 3-3.12 7.566z" fill="#FBB54B"/><path d="M19.017 113.967s.744-9.274.278-11.782c-.467-2.509-.701-2.274 2.337-1.339 3.037.935 30.628 5.612 38.343 6.079 7.714.466 10.051.866 12.391 1.367 2.338.503 2.987.709 3.508 4.477a792.33 792.33 0 001.244 8.438l-58.1-7.24z" fill="#1CAFA1"/><path d="M14.93 160.197s-6.703 2.059-11.535 3.307c-4.831 1.247-3.584.935-1.87-1.402 1.713-2.337 9.663-18.705 11.573-27.524 1.911-8.819.272-20.951.115-23.134-.157-2.182-.624-1.87 2.649-1.401 3.272.466 14.963 1.401 19.795 1.87 4.831.467 23.067 2.961 32.264 3.897 9.197.935 11.534 1.559 11.534 1.559l4.717 3.841.818 31.567-70.06 7.42z" fill="#82ECB7"/><path d="M150.843 184.391L165.4 177.3c.452-.936 9.366-10.756 7.729-21.623-1.636-10.867-7.729-15.278-7.729-15.278l-84.54 11.104s-15.276-7.014-34.058-5.612c-18.783 1.402-31.095 8.104-33.746 19.638-2.65 11.533 9.974 21.354 23.848 26.809 13.874 5.455 61.41 19.171 87.284 16.522C150.062 206.212 157.5 205 157.5 205l-2.5-3c-2.849-5.881-5.453-11.204-4.157-17.609z" fill="#50BBB5"/><path d="M125.064 155.677c-.401 3.393-.873 3.776-4.614 4.4-3.742.623-31.776-1.325-35.46-1.559-4.909-.312-3.661-3.118-4.13-7.015-.467-3.896-1.871-38.966-1.248-43.208 0 0-.311-2.46 2.65-3.862 2.96-1.402 6.235-1.436 10.597-1.496 4.363-.06 31.484-.998 33.978-.687 2.495.312 4.005.404 5.593.964.786.278-.544 6.159-1.291 12.295-.758 6.239-1.73 12.458-1.73 12.458l-.338 3.35-4.007 24.36z" fill="#000"/><path d="M137.816 135.007c-1.37-1.688-2.612-3.45-2.869-4.546-.624-2.649.154-5.3 0-9.351-.123-3.175-2.763-3.192-3.902-3.052l-2.26 13.224c-4.213-.054-13.164-.131-15.661.038-3.43.234-8.565-.095-8.573 2.728-.012 3.897 5.455 3.897 5.455 3.897v.005c-1.522.178-2.912.429-4.054.773-6.702 2.025-4.365 6.078-2.337 6.856 2.026.778 6.156 1.325 6.156 1.325-8.65 1.636-5.22 8.77 3.916 8.77 6.085 0 15.956.346 31.855-2.926 8.642-1.779 15.213-6.322 19.858-12.352l-.16-.847c-.998-5.3-2.591-8.338-7.148-13.241l-1.717.572s-12.772 3.619-18.276 8.473l-.283-.346z" fill="#FBB54B"/><path d="M169 215s2.41-3.739 5.047-5.877C176.683 206.984 182 205 182 205" stroke="#1CAFA1" stroke-width="3.923" stroke-miterlimit="10"/><path d="M129.412 46.138s.128 8.416 2.234 11.456M110.008 52.917c.467-1.739 0-9.35 0-9.35" stroke="#000" stroke-width="1.5" stroke-miterlimit="10" stroke-linecap="round" stroke-linejoin="round"/><path d="M129.412 6.86s12.623 3.507 13.559 15.664c.935 12.157-.701 21.042-17.301 23.614-16.6 2.572-23.379-10.287-23.849-16.365-.466-6.079 1.11-19.22 10.052-22.913 7.246-2.993 10.602-2.337 10.602-2.337l.889-.012a8.643 8.643 0 016.048 2.349z" stroke="#000" stroke-width="1.5" stroke-miterlimit="10" stroke-linecap="round" stroke-linejoin="round"/><path d="M109.436 47.385s-7.168.935-10.286-3.324c-3.118-4.26-4.99-13.302-4.157-20.367.833-7.066 7.898-19.744 17.664-21.303 0 0 9.663-2.7 17.873-1.767 8.21.935 18.185 7.898 22.756 13.613 4.571 5.715 8.415 24.054 7.689 29.33-.727 5.271-3.221 11.822-3.221 11.822l-1.559-7.692s-2.7 8.936-6.857 9.457c0 0 1.456-7.226 1.559-10.679 0 0-3.012 6.108-9.56 6.937l.936-5.924s-4.469 5.38-8.21 6.027l.415-6.339s-1.923 3.579-4.494 5.27" stroke="#000" stroke-width="1.5" stroke-miterlimit="10" stroke-linecap="round" stroke-linejoin="round"/><path d="M125.985 38.423s.154-1.482 1.401-1.794c1.247-.311 3.041 1.56 2.026 3.35-1.013 1.794-1.923 3.43-5.092 2.494-3.17-.935-2.312-3.246-1.299-3.947 1.013-.701 2.964-.103 2.964-.103z" fill="#F35"/><path d="M117.955 21.588s1.402 6.546 2.572 9.586c1.17 3.041 2.571 3.507 4.207 1.402l1.637-2.105M124.32 21.588s-.052 2.106 2.051 2.106c3.041 0 3.041-2.105 3.041-2.105M109.227 24.63s.389 2.025 2.26 2.337c1.871.311 3.43-1.794 3.662-2.73M115.152 40.371s5.844.701 10.598-.778c4.754-1.482 6.702-4.365 6.702-4.365M90.68 87.441s-2.96 3.585-1.09 6.079c1.87 2.494 9.949-.752 9.949-.752M153.263 123.962s10.395.752 11.597 16.654" stroke="#000" stroke-width="1.5" stroke-miterlimit="10" stroke-linecap="round" stroke-linejoin="round"/><path d="M125.064 155.677c-.401 3.393-.873 3.776-4.614 4.4-3.742.623-31.776-1.325-35.46-1.559-4.909-.312-3.661-3.118-4.13-7.015-.467-3.896-1.871-38.966-1.248-43.208 0 0-.311-2.46 2.65-3.862 2.96-1.402 6.235-1.436 10.597-1.496 4.363-.06 31.484-.998 33.978-.687 2.495.312 4.005.404 5.593.964.786.278-.544 6.159-1.291 12.295-.758 6.239-1.73 12.458-1.73 12.458l-.338 3.35" stroke="#000" stroke-width=".785" stroke-miterlimit="10" stroke-linecap="round" stroke-linejoin="round"/><path d="M62.623 172.546s19.95-2.495 40.526 0c20.576 2.494 43.486 7.792 47.694 11.845M26.775 82.859c3.43-.687 8.261-1.34 8.885.689M30.983 89.936c5.612-3.118 5.3-4.366 4.677-6.39" stroke="#000" stroke-width="1.5" stroke-miterlimit="10" stroke-linecap="round" stroke-linejoin="round"/><path d="M34.722 87.441s1.561-.778 2.497.624c.935 1.401.466 4.642-4.208 7.309" stroke="#000" stroke-width="1.5" stroke-miterlimit="10" stroke-linecap="round" stroke-linejoin="round"/><path d="M37.614 90.954s2.254-.698 3.813 0c1.559.698 1.982 3.001-3.118 7.567" stroke="#000" stroke-width="1.5" stroke-miterlimit="10" stroke-linecap="round" stroke-linejoin="round"/><path d="M105.257 119.754c.867.143 1.997-3.49 4.751-4.602 2.755-1.113 3.482-.209 2.649 2.3-.832 2.508-4.571 6.456-5.924 7.809-1.353 1.353-2.183 2.182-4.156 0-1.974-2.183-4.366-5.924-4.99-8.001-.623-2.077.833-4.631 2.91-2.108s3.49 4.396 4.76 4.602z" fill="#F35"/><path d="M102.508 37.344S100.22 13.942 128.725 7.6c0 0 2.615-4.099-3.029-4.888-5.647-.787-19.552 1.736-19.781 2.923-.458 2.377-9.148 17.753-9.148 17.753l5.741 13.956z" fill="#000"/><path class="drink-stroke" d="M47.35 22.47c-2.804 3.637-6.73 12.094 0 16.822 8.411 5.911 0 12.276 0 16.823 0 4.547 5.683 6.025 7.73 10.458M60.194 30.313c-2.046.871-5.297 3.66-1.932 7.843 4.206 5.228 3.865 8.411 1.932 12.617-1.932 4.206-.34 8.98 1.933 10.685" stroke="#000" stroke-width="1.5" stroke-linecap="round" stroke-linejoin="round"/><path d="M100.274 148.268c8.65-1.636 25.633-3.235 25.633-3.235M141.961 139.658s-6.391-6.545-7.014-9.197c-.624-2.649.154-5.3 0-9.351-.123-3.175-2.763-3.192-3.902-3.052M130.53 131.319s-13.977-.234-17.404 0c-3.429.235-8.564-.094-8.573 2.729-.011 3.896 5.455 3.896 5.455 3.896" stroke="#000" stroke-width="1.5" stroke-miterlimit="10" stroke-linecap="round" stroke-linejoin="round"/><path d="M127.93 137.942s-15.273-1.248-21.975.778c-6.702 2.025-4.365 6.078-2.337 6.856 2.025.778 6.728 1.039 6.728 1.039" stroke="#000" stroke-width="1.5" stroke-miterlimit="10" stroke-linecap="round" stroke-linejoin="round"/></g><defs><clipPath id="clip0"><path fill="#fff" d="M0 0h190.004v230H0z"/></clipPath></defs></svg>
